src/components/readr-header/assets/sns-link-facebook.svg

<svg fill="none" height="48" viewBox="0 0 48 48" width="48" xmlns="http://www.w3.org/2000/svg" xmlns:xlink="http://www.w3.org/1999/xlink"><filter id="a" filterUnits="userSpaceOnUse" height="48" width="48" x="0" y="0"><feFlood flood-opacity="0" result="BackgroundImageFix"/><feColorMatrix in="SourceAlpha" type="matrix" values="0 0 0 0 0 0 0 0 0 0 0 0 0 0 0 0 0 0 127 0"/><feOffset dy="4"/><feGaussianBlur stdDeviation="2"/><feColorMatrix type="matrix" values="0 0 0 0 0 0 0 0 0 0 0 0 0 0 0 0 0 0 0.25 0"/><feBlend in2="BackgroundImageFix" mode="normal" result="effect1_dropShadow"/><feBlend in="SourceGraphic" in2="effect1_dropShadow" mode="normal" result="shape"/></filter><g filter="url(#a)"><circle cx="24" cy="20" fill="#000928" r="20"/><path d="m26.0666 33v-10.9325h3.6897l.5507-4.2795h-4.2404v-2.7246c0-1.238.346-2.0763 2.1202-2.0763h2.2664v-3.8213c-1.093-.11296-2.1911-.16828-3.29-.16571-3.2607 0-5.4833 1.98861-5.4833 5.63931v3.1486h-3.6799v4.2795h3.6799v10.9325z" fill="#fff"/></g></svg>

<svg width="48" height="48" viewBox="0 0 48 48" fill="none" xmlns="http://www.w3.org/2000/svg"><g filter="url(#filter0_d)"><circle cx="24" cy="20" r="20" fill="#000928"/><path d="M26.0666 33V22.0675H29.7563L30.307 17.788H26.0666V15.0634C26.0666 13.8254 26.4126 12.9871 28.1868 12.9871H30.4532V9.1658C29.3602 9.05284 28.2621 8.99752 27.1632 9.00009C23.9025 9.00009 21.6799 10.9887 21.6799 14.6394V17.788H18V22.0675H21.6799V33H26.0666Z" fill="white"/></g><defs><filter id="filter0_d" x="0" y="0" width="48" height="48" filterUnits="userSpaceOnUse"><feFlood flood-opacity="0" result="BackgroundImageFix"/><feColorMatrix in="SourceAlpha" type="matrix" values="0 0 0 0 0 0 0 0 0 0 0 0 0 0 0 0 0 0 127 0"/><feOffset dy="4"/><feGaussianBlur stdDeviation="2"/><feColorMatrix type="matrix" values="0 0 0 0 0 0 0 0 0 0 0 0 0 0 0 0 0 0 0.25 0"/><feBlend mode="normal" in2="BackgroundImageFix" result="effect1_dropShadow"/><feBlend mode="normal" in="SourceGraphic" in2="effect1_dropShadow" result="shape"/></filter></defs></svg>
